X: 35754
T: Salamanca, The
R: reel
M: 4/4
K: Dmajor
|:dB|AD (3FED AD (3FED|Adcd fedc|BE (3GFE BE (3GFE|Beed cdeg|
fd (3ddd fdcA|Bdce dfag|fdec dBAG|FGEF D2:|
|:fg|afdf bgeg|fdcd BAFA|Bddc defg|(3aaa gb a2 fg|
abaf gfeg|fdec dfag|fdec dBAG|FGEF D2:|

